images/editable/433.svg

<svg width="400" height="200" xmlns="http://www.w3.org/2000/svg">
 <!-- Created with Method Draw - http://github.com/duopixel/Method-Draw/ -->

 <g>
  <title>background</title>
  <rect fill="#FFFFFF" opacity="0" id="canvas_background" height="202" width="402" y="-1" x="-1"/>
  <g display="none" overflow="visible" y="0" x="0" height="100%" width="100%" id="canvasGrid">
   <rect fill="url(#gridpattern)" stroke-width="0" y="0" x="0" height="100%" width="100%"/>
  </g>
 </g>
 <g>
  <title>Layer 1</title>
  <g stroke="null" id="svg_65">
   <path fill="#211e1e" fill-rule="nonzero" id="svg_62" d="m63.51747,132.85521l215.79777,0l59.34124,-33.05438l-59.34124,-33.09082l-215.79777,0l0,66.1452"/>
   <path fill="#ffffff" fill-rule="nonzero" id="svg_61" d="m67.56177,128.88109l210.68291,0l30.74118,-29.08755l-30.74118,-29.11672l-210.68291,0l0,58.20427"/>
  </g>
  <text xml:space="default" dominant-baseline="middle" text-anchor="middle" font-family="sans-serif" font-size="25" id="svg_12" y="110" x="180" stroke-width="0" stroke="#000" fill="#000000">param(text1)</text>
 </g>
</svg>

<?xml version="1.0" encoding="UTF-8" standalone="no"?>
<svg
   xmlns:dc="http://purl.org/dc/elements/1.1/"
   xmlns:cc="http://creativecommons.org/ns#"
   xmlns:rdf="http://www.w3.org/1999/02/22-rdf-syntax-ns#"
   xmlns:svg="http://www.w3.org/2000/svg"
   xmlns="http://www.w3.org/2000/svg"
   xmlns:sodipodi="http://sodipodi.sourceforge.net/DTD/sodipodi-0.dtd"
   xmlns:inkscape="http://www.inkscape.org/namespaces/inkscape"
   width="145"
   height="37"
   version="1.1"
   id="svg807"
   sodipodi:docname="433.svg"
   inkscape:version="1.0.2 (e86c870879, 2021-01-15, custom)">
  <metadata
     id="metadata813">
    <rdf:RDF>
      <cc:Work
         rdf:about="">
        <dc:format>image/svg+xml</dc:format>
        <dc:type
           rdf:resource="http://purl.org/dc/dcmitype/StillImage" />
        <dc:title></dc:title>
      </cc:Work>
    </rdf:RDF>
  </metadata>
  <defs
     id="defs811" />
  <sodipodi:namedview
     pagecolor="#ffffff"
     bordercolor="#666666"
     borderopacity="1"
     objecttolerance="10"
     gridtolerance="10"
     guidetolerance="10"
     inkscape:pageopacity="0"
     inkscape:pageshadow="2"
     inkscape:window-width="1920"
     inkscape:window-height="1017"
     id="namedview809"
     showgrid="false"
     inkscape:zoom="4.6068007"
     inkscape:cx="95.257924"
     inkscape:cy="45.427045"
     inkscape:window-x="3832"
     inkscape:window-y="-8"
     inkscape:window-maximized="1"
     inkscape:current-layer="svg807" />
  <!-- Created with Method Draw - http://github.com/duopixel/Method-Draw/ -->
  <g
     id="g797">
    <title
       id="title791">background</title>
    <rect
       fill="#ffffff"
       opacity="0"
       id="canvas_background"
       height="202"
       width="402"
       y="-1"
       x="-1" />
    <g
       display="none"
       overflow="visible"
       y="0"
       x="0"
       height="100%"
       width="100%"
       id="canvasGrid">
      <rect
         fill="url(#gridpattern)"
         stroke-width="0"
         y="0"
         x="0"
         height="100%"
         width="100%"
         id="rect794" />
    </g>
  </g>
  <g
     id="g805"
     transform="matrix(0.52414982,0,0,0.52414982,-32.508541,-34.028356)">
    <title
       id="title799">Layer 1</title>
    <g
       stroke="null"
       id="svg_65">
      <path
         fill="#211e1e"
         fill-rule="nonzero"
         id="svg_62"
         d="M 63.51747,132.85521 H 279.31524 L 338.65648,99.80083 279.31524,66.71001 H 63.51747 v 66.1452" />
      <path
         fill="#ffffff"
         fill-rule="nonzero"
         id="svg_61"
         d="M 67.56177,128.88109 H 278.24468 L 308.98586,99.79354 278.24468,70.67682 H 67.56177 v 58.20427" />
    </g>
    <text
       xml:space="default"
       dominant-baseline="middle"
       text-anchor="middle"
       font-family="sans-serif"
       font-size="25px"
       id="svg_12"
       y="110"
       x="180"
       stroke-width="0"
       stroke="#000000"
       fill="#000000">param(text1)</text>
  </g>
</svg>
